X: 13155
T: First Month Of Summer, The
R: reel
M: 4/4
K: Gmajor
GE~E2 D2BD|~D2 BD GABA|GEEG DB ~B2|DEGA BcBA|
GEcE ~D2 BD|~D2 BD GABA|GEEG DB ~B2|DEGA BcBA||
GB ~B2 dBeB|dB ~B2 e2eg|dB B/c/d e2dB|~c2 Bc ABce|
dB ~B2 dBeB|dB ~B2 e2ef|~g2fg edBd|cABG AcBA||

